svg/SJJB-OpenStreetMapIcons/accommodation/caravan_park.svg

<?xml version="1.0" encoding="UTF-8" standalone="no"?>
<!-- Created with Inkscape (http://www.inkscape.org/) -->
<svg
   xmlns:dc="http://purl.org/dc/elements/1.1/"
   xmlns:cc="http://creativecommons.org/ns#"
   xmlns:rdf="http://www.w3.org/1999/02/22-rdf-syntax-ns#"
   xmlns:svg="http://www.w3.org/2000/svg"
   xmlns="http://www.w3.org/2000/svg"
   xmlns:sodipodi="http://sodipodi.sourceforge.net/DTD/sodipodi-0.dtd"
   xmlns:inkscape="http://www.inkscape.org/namespaces/inkscape"
   version="1.0"
   width="580"
   height="580"
   id="svg2"
   sodipodi:version="0.32"
   inkscape:version="0.46"
   sodipodi:docname="caravan.svg"
   sodipodi:docbase="s:\Data\FacilityIcons"
   inkscape:output_extension="org.inkscape.output.svg.inkscape">
  <metadata
     id="metadata2975">
    <rdf:RDF>
      <cc:Work
         rdf:about="">
        <dc:format>image/svg+xml</dc:format>
        <dc:type
           rdf:resource="http://purl.org/dc/dcmitype/StillImage" />
			  <cc:license
           rdf:resource="http://web.resource.org/cc/PublicDomain" />
        <dc:language>en</dc:language>
      </cc:Work>
    </rdf:RDF>
  </metadata>
  <sodipodi:namedview
     inkscape:window-height="947"
     inkscape:window-width="1048"
     inkscape:pageshadow="2"
     inkscape:pageopacity="0.0"
     guidetolerance="10.0"
     gridtolerance="10.0"
     objecttolerance="10.0"
     borderopacity="1.0"
     bordercolor="#666666"
     pagecolor="#ffffff"
     id="base"
     inkscape:zoom="0.92167712"
     inkscape:cx="301.5186"
     inkscape:cy="281.19503"
     inkscape:window-x="91"
     inkscape:window-y="25"
     inkscape:current-layer="svg2"
     showgrid="false" />
  <defs
     id="defs4">
    <inkscape:perspective
       sodipodi:type="inkscape:persp3d"
       inkscape:vp_x="0 : 290 : 1"
       inkscape:vp_y="0 : 1000 : 0"
       inkscape:vp_z="580 : 290 : 1"
       inkscape:persp3d-origin="290 : 193.33333 : 1"
       id="perspective2441" />
    <inkscape:perspective
       id="perspective3452"
       inkscape:persp3d-origin="30 : 20 : 1"
       inkscape:vp_z="60 : 30 : 1"
       inkscape:vp_y="0 : 1000 : 0"
       inkscape:vp_x="0 : 30 : 1"
       sodipodi:type="inkscape:persp3d" />
    <symbol
       viewBox="244.5 110 489 219.9"
       id="symbol-university">
      <path
         id="path4460"
         d="M79,43l57,119c0,0,21-96,104-96s124,106,124,106l43-133l82-17L0,17L79,43z" />
      <path
         id="path4462"
         d="M94,176l-21,39"
         stroke-width="20"
         stroke="#000000"
         fill="none" />
      <path
         id="path4464"
         d="M300,19c0,10.5-22.6,19-50.5,19S199,29.5,199,19s22.6-19,50.5-19S300,8.5,300,19z" />
      <path
         id="path4466"
         d="M112,216l-16-38L64,88c0,0-9-8-4-35s16-24,16-24"
         stroke-width="20"
         stroke="#000000"
         ill="none" />
    </symbol>
    <inkscape:perspective
       id="perspective4471"
       inkscape:persp3d-origin="372.04724 : 350.78739 : 1"
       inkscape:vp_z="744.09448 : 526.18109 : 1"
       inkscape:vp_y="0 : 1000 : 0"
       inkscape:vp_x="0 : 526.18109 : 1"
       sodipodi:type="inkscape:persp3d" />
    <inkscape:perspective
       id="perspective4668"
       inkscape:persp3d-origin="6 : 4 : 1"
       inkscape:vp_z="12 : 6 : 1"
       inkscape:vp_y="0 : 1000 : 0"
       inkscape:vp_x="0 : 6 : 1"
       sodipodi:type="inkscape:persp3d" />
  </defs>
  <g
     id="g1327">
    <path
       d="M 66.275,1.768 C 24.94,1.768 1.704,23.139 1.704,66.804 L 1.704,516.927 C 1.704,557.771 22.599,579.156 63.896,579.156 L 515.92,579.156 C 557.227,579.156 578.149,558.841 578.149,516.927 L 578.149,66.804 C 578.149,24.203 557.227,1.768 514.628,1.768 C 514.624,1.768 66.133,1.625 66.275,1.768 z "
       style="fill:#111;stroke:#eee;stroke-width:3.40799999"
       id="path1329" />
  </g>
  <g
     id="layer3"
     inkscape:label="Layout"
     style="display:none;stroke:#757575;stroke-opacity:1"
     transform="matrix(48.14969,0,0,48.14969,-536.27327,-33.306752)">
    <rect
       style="fill:none;stroke:#757575;stroke-width:0.10000000000000001;stroke-miterlimit:4;stroke-dasharray:none;stroke-opacity:1;display:inline"
       id="rect4134"
       width="10"
       height="10"
       x="1"
       y="1" />
    <rect
       style="fill:none;stroke:#757575;stroke-width:0.10000000000000001;stroke-miterlimit:4;stroke-dasharray:none;stroke-opacity:1;display:inline"
       id="rect4136"
       width="8"
       height="8"
       x="2"
       y="2" />
  </g>
  <path
     transform="matrix(14.685839,0,0,14.685839,565.76584,1146.0639)"
     style="font-size:40px;font-style:normal;font-variant:normal;font-weight:normal;font-stretch:normal;text-align:start;line-height:125%;writing-mode:lr-tb;text-anchor:start;fill:#ffffff;fill-opacity:1;stroke:none;stroke-width:1px;stroke-linecap:butt;stroke-linejoin:miter;stroke-opacity:1;font-family:NPSPICT3;-inkscape-font-specification:NPSPICT3"
     d="M -8.7426758,-60.988525 C -8.7427061,-60.215399 -9.115834,-59.828844 -9.8620605,-59.828857 L -13.822021,-59.828857 C -14.569116,-59.828844 -14.942651,-60.215399 -14.942627,-60.988525 L -14.942627,-62.868408 C -14.942651,-63.615461 -14.569116,-63.988996 -13.822021,-63.989014 L -9.8620605,-63.989014 C -9.115834,-63.988996 -8.7427061,-63.615461 -8.7426758,-62.868408 L -8.7426758,-60.988525 z M -20.021973,-60.948242 C -20.021992,-60.201972 -20.408954,-59.828844 -21.182861,-59.828857 L -29.742432,-59.828857 C -30.489511,-59.828844 -30.863045,-60.201972 -30.863037,-60.948242 L -30.863037,-62.868408 C -30.863045,-63.615461 -30.489511,-63.988996 -29.742432,-63.989014 L -21.182861,-63.989014 C -20.408954,-63.988996 -20.021992,-63.615461 -20.021973,-62.868408 L -20.021973,-60.948242 z M -2.4621582,-51.947998 L -5.3430176,-51.947998 L -5.3430176,-61.947998 C -5.3430513,-63.495018 -5.8830084,-64.80178 -6.9628906,-65.868286 C -8.042837,-66.934753 -9.3428845,-67.467996 -10.863037,-67.468018 L -29.58252,-67.468018 C -31.129565,-67.467996 -32.436327,-66.934753 -33.502808,-65.868286 C -34.5693,-64.80178 -35.102543,-63.495018 -35.102539,-61.947998 L -35.102539,-54.86792 C -35.102543,-53.748121 -34.70256,-52.788242 -33.902588,-51.988281 C -33.102626,-51.188309 -32.142748,-50.788325 -31.022949,-50.78833 L -24.58252,-50.78833 C -24.502781,-51.934971 -24.049494,-52.908278 -23.222656,-53.708252 C -22.39585,-54.508211 -21.395688,-54.908194 -20.222168,-54.908203 C -19.075541,-54.908194 -18.082296,-54.508211 -17.242432,-53.708252 C -16.402611,-52.908278 -15.955834,-51.948399 -15.9021,-50.828613 L -1.3427734,-50.828613 C -1.3428112,-51.574864 -1.715939,-51.947992 -2.4621582,-51.947998 L -2.4621582,-51.947998 z M -20.222168,-49.148926 C -20.595722,-49.148923 -20.915749,-49.282183 -21.182251,-49.548706 C -21.448789,-49.815223 -21.582049,-50.13525 -21.582031,-50.508789 C -21.582049,-50.908361 -21.448789,-51.234899 -21.182251,-51.488403 C -20.915749,-51.741897 -20.595722,-51.868647 -20.222168,-51.868652 C -19.849466,-51.868647 -19.529642,-51.741897 -19.262695,-51.488403 C -18.995788,-51.234899 -18.862325,-50.908361 -18.862305,-50.508789 C -18.862325,-50.13525 -18.995788,-49.815223 -19.262695,-49.548706 C -19.529642,-49.282183 -19.849466,-49.148923 -20.222168,-49.148926 L -20.222168,-49.148926 z M -20.222168,-53.667969 C -21.10272,-53.667961 -21.849586,-53.361362 -22.462769,-52.748169 C -23.075984,-52.134963 -23.382584,-51.388504 -23.382568,-50.508789 C -23.382584,-49.655107 -23.075984,-48.921669 -22.462769,-48.308472 C -21.849586,-47.69527 -21.10272,-47.388671 -20.222168,-47.388672 C -19.369323,-47.388671 -18.636088,-47.69527 -18.022461,-48.308472 C -17.408876,-48.921669 -17.102073,-49.655107 -17.102051,-50.508789 C -17.102073,-51.388504 -17.408876,-52.134963 -18.022461,-52.748169 C -18.636088,-53.361362 -19.369323,-53.667961 -20.222168,-53.667969 L -20.222168,-53.667969 z"
     id="flowRoot3192" />
</svg>

<svg xmlns="http://www.w3.org/2000/svg" viewBox="0 0 580 580"><path d="m66.28 1.768c-41.34 0-64.57 21.371-64.57 65.04v450.12c0 40.844 20.895 62.23 62.19 62.23h452.02c41.31 0 62.23-20.315 62.23-62.23v-450.12c0-42.601-20.922-65.04-63.52-65.04-.004 0-448.5-.143-448.35 0z" fill="#111" stroke="#eee" stroke-width="3.408"/><path transform="matrix(14.68584 0 0 14.68584 565.77 1146.06)" d="m-8.743-60.989c0 .773-.373 1.16-1.119 1.16h-3.96c-.747 0-1.121-.387-1.121-1.16v-1.88c0-.747.374-1.121 1.121-1.121h3.96c.746 0 1.119.374 1.119 1.121v1.88m-11.279.04c0 .746-.387 1.119-1.161 1.119h-8.56c-.747 0-1.121-.373-1.121-1.119v-1.92c0-.747.374-1.121 1.121-1.121h8.56c.774 0 1.161.374 1.161 1.121v1.92m17.56 9h-2.881v-10c0-1.547-.54-2.854-1.62-3.92-1.08-1.066-2.38-1.6-3.9-1.6h-18.719c-1.547 0-2.854.533-3.92 1.6-1.066 1.067-1.6 2.373-1.6 3.92v7.08c0 1.12.4 2.08 1.2 2.88.8.8 1.76 1.2 2.88 1.2h6.44c.08-1.147.533-2.12 1.36-2.92.827-.8 1.827-1.2 3-1.2 1.147 0 2.14.4 2.98 1.2.84.8 1.287 1.76 1.34 2.88h14.559c0-.746-.373-1.119-1.119-1.119m-17.76 2.799c-.374 0-.694-.133-.96-.4-.267-.267-.4-.587-.4-.96 0-.4.133-.726.4-.98.267-.253.587-.38.96-.38.373 0 .693.127.959.38.267.254.4.58.4.98 0 .374-.133.694-.4.96-.267.267-.587.4-.959.4m0-4.519c-.881 0-1.627.307-2.241.92-.613.613-.92 1.36-.92 2.239 0 .854.307 1.587.92 2.2.613.613 1.36.92 2.241.92.853 0 1.586-.307 2.2-.92.614-.613.92-1.347.92-2.2 0-.88-.307-1.626-.92-2.239-.614-.613-1.347-.92-2.2-.92" fill="#fff"/></svg>
